X: 486
T: Xiang meizi
L: 1/8
M: 2/4
K: F
c Ac2 [I:setbarnb 1]| 
c f A G | 
c2f A | 
G F D C | 
G2A G | 
F2G2 | 
f2d B | 
c4 |]

@@@ Tune index: 9360
